X:1
T:Affton, 76.76.76 D
T:Affton, 76.76.76 D
T:Theodore Frelinghuysen Seward, 1875
T:Public Domain Courtesy of the Cyber Hymnal™
C:Theodore Frelinghuysen Seward, 1875
Z:Public Domain
Z:Courtesy of the Cyber Hymnal™
%%score ( 1 2 ) ( 3 4 )
L:1/8
Q:1/4=105
M:6/8
K:Eb
V:1 treble 
V:2 treble 
V:3 bass 
V:4 bass 
V:1
 [GB] | [Ge]2 [GB] [GB]2 [EG] | [EG]3 [DF]2 [EG] | [FA]2 [Ac] [GB]2 [FA] | [EG]3- [EG]2 [GB] | %5
 [Ge]2 [GB] [GB]2 [EG] | [EG]3 [DF]2 [EG] | ([FA][GB])[Ac] [GB]2 [B,D] | [B,E]3- [B,E]2 [EG] | %9
 [EG]2 [DF] [DF]2 [DB] | [Fd]3 [DB]2 [Bd] | ([ce][Bd])[=Ac] ([Ac][Bd])[ce] | [Bd]3- [Bd]2 [DB] | %13
 [EG]2 [DF] [DF]2 [DB] | [Fd]3 [Ff]2 [Ge] | [Fd]2 [Ec] [DB]2 [C=A] | [DB]3- [DB]2 [GB] | %17
 [Ge]2 [GB] [GB]2 [EG] | [EG]3 [DF]2 [EG] | [FA]2 [Ac] [GB]2 [FA] | [EG]3- [EG]2 [GB] | %21
 [Ge]2 [Ee] [Ee]2 [Ee] | [Ee]3 [Ed]2 [Ac] | [GB]2 [GB] (dc)[Ad] | [Ge]3- [Ge]2 |] %25
V:2
 x | x6 | x6 | x6 | x6 | x6 | x6 | x6 | x6 | x6 | x6 | x6 | x6 | x6 | x6 | x6 | x6 | x6 | x6 | x6 | %20
 x6 | x6 | x6 | x3 A2 x | x5 |] %25
V:3
 [E,B,] | [E,B,]2 [E,E] [E,E]2 [E,B,] | [B,,B,]3 [B,,B,]2 [B,,B,] | %3
 [B,,B,]2 [B,,B,] [B,,B,]2 [B,,D] | [E,E]3- [E,E]2 [E,B,] | [E,B,]2 [E,E] [E,E]2 [E,B,] | %6
 [B,,B,]3 [B,,B,]2 [B,,B,] | [B,,B,]2 [B,,B,] [B,,B,]2 [B,,A,] | [E,G,]3- [E,G,]2 [B,,B,] | %9
 [B,,B,]2 [B,,B,] [B,,B,]2 [B,,B,] | [B,,B,]3 [B,,B,]2 [B,,B,] | F,2 F, F,2 F, | %12
 [B,,B,]3- [B,,B,]2 [B,,B,] | [B,,B,]2 [B,,B,] [B,,B,]2 [B,,B,] | [B,,B,]3 [D,B,]2 [E,B,] | %15
 [F,B,]2 F, F,2 F, | [B,,F,]3- [B,,F,]2 [E,B,] | [E,B,]2 [E,E] [E,E]2 [E,B,] | %18
 [B,,B,]3 [B,,B,]2 [B,,B,] | [B,,B,]2 [B,,B,] [B,,B,]2 [B,,D] | [E,B,]3- [E,B,]2 [E,B,] | %21
 [E,B,]2 [E,G,] ([E,G,][F,A,])[G,B,] | [A,C]3 [A,C]2 [A,E] | [B,E]2 B, [B,,B,]2 [B,,B,] | %24
 [E,B,]3- [E,B,]2 |] %25
V:4
 x | x6 | x6 | x6 | x6 | x6 | x6 | x6 | x6 | x6 | x6 | F,2 F, F,2 F, | x6 | x6 | x6 | %15
 x2 F, F,2 F, | x6 | x6 | x6 | x6 | x6 | x6 | x6 | x2 B, x3 | x5 |] %25

